X:44
T:A Nickel's Worth of Nothing
R:reel
C: 1980, 2010 L.E. McCullough  
M:4/4 
L:1/8
K:G
|:Bdge dBAG|E~G3 A2Bd|eged edBA|GBGF ~G3A|
Bdge dBAG|E~G3 A2Bd|e~g3 ageg|dBAB ~G3A:|
|:B~G3 A~E3|GABd e2ge|B~G3 GABd|edBG ABGA|
B~G3 A~E3|GABd e2ge|~g3a gdeg|edBA ~G3A:|
<end>
<start>
